assets/img/hearth.svg

<svg fill="none" height="160" viewBox="0 0 160 160" width="160" xmlns="http://www.w3.org/2000/svg"><g clip-rule="evenodd" fill-rule="evenodd"><path d="m68 35h-21v5h-5v6h-6v26h6v6h5v5h5v6h6v5h5v5h6v6h5v5h5v4h3 3v-4h5v-5h5v-6h6v-5h5v-5h6v-6h5v-5h5v-6h6v-26h-6v-6h-5v-5h-21v5h-6v6h-5v6h-3-3v-6h-5v-6h-6zm-21 16h-4v16h4zm4-4v4h-4v-4zm0 0v-4h4v4z" fill="#58eeef"/><path d="m63 45h-21v5h-5v6h-6v26h6v6h5v5h5v6h6v5h5v5h6v6h5v5h5v4h3 3v-4h5v-5h5v-6h6v-5h5v-5h6v-6h5v-5h5v-6h6v-26h-6v-6h-5v-5h-21v5h-6v6h-5v6h-3-3v-6h-5v-6h-6zm-21 16h-4v16h4zm4-4v4h-4v-4zm0 0v-4h4v4z" fill="#ff9bf3"/><path d="m63 38h-21v5h-5v6h-6v26h6v6h5v5h5v6h6v5h5v5h6v6h5v5h5v4h3 3v-4h5v-5h5v-6h6v-5h5v-5h6v-6h5v-5h5v-6h6v-26h-6v-6h-5v-5h-21v5h-6v6h-5v6h-3-3v-6h-5v-6h-6zm-21 16h-4v16h4zm4-4v4h-4v-4z" fill="#000"/><path d="m50 46h-4v4h-4v4h-4v16h4v-16h4v-4h4z" fill="#fff"/></g></svg>

<svg width="160" height="160" viewBox="0 0 160 160" fill="none" xmlns="http://www.w3.org/2000/svg">
<path fill-rule="evenodd" clip-rule="evenodd" d="M68 35H47V40H42V46H36V72H42V78H47V83H52V89H58V94H63V99H69V105H74V110H79V114H82H85V110H90V105H95V99H101V94H106V89H112V83H117V78H122V72H128V46H122V40H117V35H96V40H90V46H85V52H82H79V46H74V40H68V35ZM47 51H43V67H47V51ZM51 47V51H47V47H51ZM51 47V43H55V47H51Z" fill="#58EEEF"/>
<path fill-rule="evenodd" clip-rule="evenodd" d="M63 45H42V50H37V56H31V82H37V88H42V93H47V99H53V104H58V109H64V115H69V120H74V124H77H80V120H85V115H90V109H96V104H101V99H107V93H112V88H117V82H123V56H117V50H112V45H91V50H85V56H80V62H77H74V56H69V50H63V45ZM42 61H38V77H42V61ZM46 57V61H42V57H46ZM46 57V53H50V57H46Z" fill="#FF9BF3"/>
<path fill-rule="evenodd" clip-rule="evenodd" d="M63 38H42V43H37V49H31V75H37V81H42V86H47V92H53V97H58V102H64V108H69V113H74V117H77H80V113H85V108H90V102H96V97H101V92H107V86H112V81H117V75H123V49H117V43H112V38H91V43H85V49H80V55H77H74V49H69V43H63V38ZM42 54H38V70H42V54ZM46 50V54H42V50H46Z" fill="black"/>
<path fill-rule="evenodd" clip-rule="evenodd" d="M50 46H46V50H42V54H38V70H42V54H46V50H50V46Z" fill="white"/>
</svg>
